X:1
T:The Banner of the Cross
T:The Banner of the Cross
T:Charles Hutchinson Gabriel
T:Ella M. Bangs, 1918
T:Public Domain Courtesy of the Cyber Hymnal™
T:Public Domain Courtesy of the Cyber Hymnal™
C:Charles Hutchinson Gabriel
Z:Public Domain
Z:Courtesy of the Cyber Hymnal™
%%score ( 1 2 ) ( 3 4 )
L:1/8
Q:1/4=98
M:3/4
K:E
V:1 treble 
V:2 treble 
V:3 bass 
V:4 bass 
V:1
 B,[B,E] [EG] | [EB]4 [^^CB]2 | [DB]2 [DB]B, [B,D][DF] | [DB]4 [Dc]2 | [EB]3 E [EG][GB] | %5
w: 1.~Gird on your|stead- fast|ar- mor, O sol- diers|of the|cross; Go for- ward|
w: 2.~The Gi- ant|of Temp-|ta- tion Will meet us|as we|go; We need our|
w: 3.~The en- e-|mies ap-|proach- ing Are Self- ish-|ness, and|Greed, Vain- glo- ry,|
 [Ge]4 [Ge]2 | [Ae]2 [Ad][Ac] [Ad][Ae] | [Ae]4 [Ac]2 | [GB]3 B, [B,E][EG] | [EB]4 [^^CB]2 | %10
w: in- to|bat- tle, Nor fear re-|pulse nor|loss; Make rea- dy|for the|
w: strong- est|ar- mor To greet this|might- y|foe; But our good|sword, Re-|
w: and Im-|pa- tience; Our lead- er’s|help we|need. Yet ev- er|march- ing|
 [DB]2 [DB]B, [B,D][DF] | [DB]4 [Dc]2 | [EG]3 E [EG][GB] | [Ee]4 [^^Fe]2 | %14
w: con- flict, The Cap- tain’s|call o-|bey; Then ral- ly|and march|
w: sist- ance, Will hold and|bind him|fast; And with our|cap- tain|
w: on- ward, Why have we|fear of|loss, When o- ver|us is|
 [Ge]2 [EG][EG] [EG][EG] | [EF]4 [Ec]2 | [DB]3 ||"^Refrain" BB [AB] | [Ge]4 [Ee]2 | %19
w: on- ward, The trum- pet|sounds to-|day.|||
w: lead- ing, We’ll con- quer|him at|last.|Then on- ward|to the|
w: float- ing The ban- ner|of the|Cross?|||
 [Ae]2 [Ad][DA] [DA][DA] | [Ad]4 [Ac]2 | (c2 B)E EE | [EB]4 [^^CB]2 | %23
w: ||||
w: bat- tle, We’re march- ing|in our|might, * We’re press- ing|tow’rd the|
w: ||||
 [DB]>[B,D] [B,D]B, [B,D][DF] | [Dc]4 [Dc]2 | [EG]3 B B[AB] | [Ge]4 [Ee]2 | %27
w: ||||
w: vic- to- ry, We’re fight- ing|for the|right; Up- on the|breeze res-|
w: ||||
 [Ae]2 [Ad][DA] [DA][DA] | [Ad]4 [Ac]2 | (c2 B)E EE | [^EB]4 [Ec]2 | [GB]>[FA] [FA][E^A] [EB][Ec] | %32
w: |||||
w: plen- dent Our col- ors|now we|toss, * And o’er our|heads shall|ev- er float The ban- ner|
w: |||||
 [Ad]4 [AB]2 | [Ge]3 |] %34
w: ||
w: of the|Cross.|
w: ||
V:2
 B, x2 | x6 | x3 B, x2 | x6 | x3 E x2 | x6 | x6 | x6 | x3 B, x2 | x6 | x3 B, x2 | x6 | x3 E x2 | %13
 x6 | x6 | x6 | x3 || BB x | x6 | x6 | x6 | G3 E EE | x6 | x3 B, x2 | x6 | x3 B B x | x6 | x6 | %28
 x6 | G3 E EE | x6 | x6 | x6 | x3 |] %34
V:3
 [E,G,][E,G,] [E,B,] | [E,G,]4 [^E,G,]2 | [F,A,]2 [F,A,][F,A,] [F,A,][F,A,] | [B,,A,]4 [B,,A,]2 | %4
 [E,G,]3 [E,G,] [E,B,][E,E] | [E,B,]4 [E,B,]2 | [F,B,]2 [F,B,][F,B,] [F,B,][F,B,] | %7
 B,2 C2 [B,,D]2 | [G,E]3 [E,G,] [E,G,][E,B,] | [E,G,]4 [^E,G,]2 | %10
 [F,A,]2 [F,A,][F,A,] [F,A,][F,A,] | [B,,A,]4 [B,,A,]2 | [E,B,]3 [E,G,] [E,B,][=D,B,] | %13
 [C,A,]4 [=C,^A,]2 | [B,,B,]2 [B,,B,][B,,B,] [B,,B,][B,,B,] | ^A,4 [F,,F,A,]2 | [B,,B,]3 || %17
 B,B, B, | [E,B,]4 B,2 | [F,B,]2 [F,B,][F,B,] [F,B,][F,B,] | B,2 C2 [B,,D]2 | %21
 [E,E]3 [E,G,] [E,G,][E,G,] | [E,G,]4 [^E,G,]2 | [F,A,]>[F,A,] [F,A,][F,A,] [F,A,][F,A,] | %24
 [B,,A,]4 [B,,A,]2 | [E,B,]3 B, B,B, | [E,B,]4 B,2 | [F,B,]2 [F,B,][F,B,] [F,B,][F,B,] | %28
 B,2 C2 [B,,D]2 | [E,E]3 [E,G,] [E,G,][E,G,] | G,2 C2 [C,C]2 | %31
 [F,C]>[F,C] [F,C][^^F,C] [G,B,][=G,B,] | [F,B,]4 B,2 | [E,B,]3 |] %34
V:4
 x3 | x6 | x6 | x6 | x6 | x6 | x6 | B,,4 x2 | x6 | x6 | x6 | x6 | x6 | x6 | x6 | C,2 F,,2 x2 | %16
 x3 || B,B, B, | x4 (G,=G,) | x6 | B,,4 x2 | x6 | x6 | x6 | x6 | x3 B, B,B, | x4 (G,=G,) | x6 | %28
 B,,4 x2 | x6 | C,4 x2 | x6 | x4 B,2 | x3 |] %34

